build/svg/cmd/lc_choosecontrols.svg

<?xml version="1.0" encoding="UTF-8" standalone="no"?>
<svg
   xmlns:dc="http://purl.org/dc/elements/1.1/"
   xmlns:cc="http://creativecommons.org/ns#"
   xmlns:rdf="http://www.w3.org/1999/02/22-rdf-syntax-ns#"
   xmlns:svg="http://www.w3.org/2000/svg"
   xmlns="http://www.w3.org/2000/svg"
   xmlns:xlink="http://www.w3.org/1999/xlink"
   xmlns:sodipodi="http://sodipodi.sourceforge.net/DTD/sodipodi-0.dtd"
   xmlns:inkscape="http://www.inkscape.org/namespaces/inkscape"
   height="24"
   viewBox="0 0 6.3499999 6.3500002"
   width="24"
   version="1.1"
   id="svg70"
   sodipodi:docname="lc_choosecontrols.svg"
   inkscape:version="0.92.5 (2060ec1f9f, 2020-04-08)"
   inkscape:export-filename="/home/jupiter007/Libreoffice yaru theme fullcolor/build/cmd/lc_choosecontrols.png"
   inkscape:export-xdpi="95"
   inkscape:export-ydpi="95">
  <metadata
     id="metadata76">
    <rdf:RDF>
      <cc:Work
         rdf:about="">
        <dc:format>image/svg+xml</dc:format>
        <dc:type
           rdf:resource="http://purl.org/dc/dcmitype/StillImage" />
      </cc:Work>
    </rdf:RDF>
  </metadata>
  <defs
     id="defs74" />
  <sodipodi:namedview
     pagecolor="#ffffff"
     bordercolor="#666666"
     borderopacity="1"
     objecttolerance="10"
     gridtolerance="10"
     guidetolerance="10"
     inkscape:pageopacity="0"
     inkscape:pageshadow="2"
     inkscape:window-width="1920"
     inkscape:window-height="1011"
     id="namedview72"
     showgrid="true"
     inkscape:zoom="27.812867"
     inkscape:cx="9.2587874"
     inkscape:cy="12.344365"
     inkscape:window-x="0"
     inkscape:window-y="32"
     inkscape:window-maximized="1"
     inkscape:current-layer="svg70">
    <inkscape:grid
       type="xygrid"
       id="grid910" />
  </sodipodi:namedview>
  <linearGradient
     id="a"
     gradientTransform="matrix(.8048 0 0 .60166 -516.818 -404.08)"
     gradientUnits="userSpaceOnUse"
     x1="731.05701"
     x2="731.05701"
     y1="654.815"
     y2="619.30701">
    <stop
       offset="0"
       stop-color="#55c1ec"
       id="stop2" />
    <stop
       offset="1"
       stop-color="#3689e6"
       id="stop4" />
  </linearGradient>
  <linearGradient
     id="b"
     gradientTransform="matrix(.04846 0 0 .5238 -20.405 -100.176)"
     gradientUnits="userSpaceOnUse"
     x1="292.85699"
     x2="292.85699"
     y1="211.076"
     y2="233.827">
    <stop
       offset="0"
       id="stop7" />
    <stop
       offset="1"
       stop-opacity="0"
       id="stop9" />
  </linearGradient>
  <linearGradient
     id="c"
     gradientUnits="userSpaceOnUse"
     x1="7.814"
     x2="9.271"
     y1="12.475"
     y2="19.389999">
    <stop
       offset="0"
       stop-color="#64baff"
       id="stop12" />
    <stop
       offset="1"
       stop-color="#3689e6"
       id="stop14" />
  </linearGradient>
  <linearGradient
     id="d">
    <stop
       offset="0"
       stop-color="#fff"
       id="stop17" />
    <stop
       offset=".12500216"
       stop-color="#fff"
       stop-opacity=".099265"
       id="stop19" />
    <stop
       offset=".99998999"
       stop-color="#fff"
       stop-opacity="0"
       id="stop21" />
    <stop
       offset="1"
       stop-color="#fff"
       stop-opacity=".551471"
       id="stop23" />
  </linearGradient>
  <linearGradient
     id="e"
     gradientUnits="userSpaceOnUse"
     x1="2.910417"
     x2="2.910417"
     xlink:href="#d"
     y1="293.29581"
     y2="294.35416" />
  <linearGradient
     id="f"
     gradientUnits="userSpaceOnUse"
     x1="2.910417"
     x2="2.910417"
     xlink:href="#d"
     y1="291.57602"
     y2="295.94165" />
  <rect
     y="0.5291667"
     x="3.4395833"
     height="2.3812499"
     width="2.3812499"
     id="rect894"
     style="opacity:0.6;fill:#000000;fill-opacity:1;fill-rule:nonzero;stroke:none;stroke-width:0.5291667;stroke-linecap:round;stroke-linejoin:round;stroke-miterlimit:4;stroke-dasharray:none;stroke-opacity:0.98705498"
     ry="0.26458332" />
  <rect
     style="opacity:1;fill:#ffffff;fill-opacity:1;fill-rule:nonzero;stroke:none;stroke-width:0.5291667;stroke-linecap:round;stroke-linejoin:round;stroke-miterlimit:4;stroke-dasharray:none;stroke-opacity:0.98705498"
     id="rect892"
     width="1.8520834"
     height="1.8520833"
     x="3.7041667"
     y="0.79374999" />
  <rect
     ry="0.26458332"
     style="opacity:0.6;fill:#000000;fill-opacity:1;fill-rule:nonzero;stroke:none;stroke-width:0.5291667;stroke-linecap:round;stroke-linejoin:round;stroke-miterlimit:4;stroke-dasharray:none;stroke-opacity:0.98705498"
     id="rect896"
     width="2.3812499"
     height="2.3812499"
     x="3.4395833"
     y="3.4395833" />
  <rect
     y="3.7041667"
     x="3.7041667"
     height="1.852083"
     width="1.852083"
     id="rect898"
     style="opacity:1;fill:#ffffff;fill-opacity:1;fill-rule:nonzero;stroke:none;stroke-width:0.5291667;stroke-linecap:round;stroke-linejoin:round;stroke-miterlimit:4;stroke-dasharray:none;stroke-opacity:0.98705498" />
  <path
     style="fill:#7c436f;fill-opacity:1;stroke:none;stroke-width:0.26458335px;stroke-linecap:butt;stroke-linejoin:miter;stroke-opacity:1"
     d="M 4.6302084,1.0583333 5.2916667,2.38125 H 3.96875"
     id="path900"
     inkscape:connector-curvature="0"
     sodipodi:nodetypes="ccc" />
  <ellipse
     style="opacity:1;fill:#7c436f;fill-opacity:1;fill-rule:nonzero;stroke:none;stroke-width:0.59531265;stroke-linecap:round;stroke-linejoin:round;stroke-miterlimit:4;stroke-dasharray:none;stroke-opacity:0.98705498"
     id="path904"
     cx="1.7197917"
     cy="1.7197914"
     rx="1.190625"
     ry="1.1906253" />
  <path
     style="color:#000000;font-style:normal;font-variant:normal;font-weight:normal;font-stretch:normal;font-size:medium;line-height:normal;font-family:sans-serif;font-variant-ligatures:normal;font-variant-position:normal;font-variant-caps:normal;font-variant-numeric:normal;font-variant-alternates:normal;font-feature-settings:normal;text-indent:0;text-align:start;text-decoration:none;text-decoration-line:none;text-decoration-style:solid;text-decoration-color:#000000;letter-spacing:normal;word-spacing:normal;text-transform:none;writing-mode:lr-tb;direction:ltr;text-orientation:mixed;dominant-baseline:auto;baseline-shift:baseline;text-anchor:start;white-space:normal;shape-padding:0;clip-rule:nonzero;display:inline;overflow:visible;visibility:visible;opacity:1;isolation:auto;mix-blend-mode:normal;color-interpolation:sRGB;color-interpolation-filters:linearRGB;solid-color:#000000;solid-opacity:1;vector-effect:none;fill:#ffffff;fill-opacity:1;fill-rule:nonzero;stroke:none;stroke-width:0.39687505;stroke-linecap:butt;stroke-linejoin:miter;stroke-miterlimit:4;stroke-dasharray:none;stroke-dashoffset:0;stroke-opacity:1;marker:none;color-rendering:auto;image-rendering:auto;shape-rendering:auto;text-rendering:auto;enable-background:accumulate"
     id="path4135-2-8"
     d="M 2.341661,1.0486958 1.4390065,1.9498372 1.0979184,1.6096572 0.8769769,1.8303847 1.4390066,2.3908871 2.5626064,1.2694228 Z"
     inkscape:connector-curvature="0"
     sodipodi:nodetypes="ccccccc" />
  <rect
     y="3.4395833"
     x="0.5291667"
     height="2.3812499"
     width="2.3812499"
     id="rect927"
     style="opacity:1;fill:#7c436f;fill-opacity:1;fill-rule:nonzero;stroke:none;stroke-width:0.5291667;stroke-linecap:round;stroke-linejoin:round;stroke-miterlimit:4;stroke-dasharray:none;stroke-opacity:0.98705498"
     ry="0.26458332" />
  <path
     sodipodi:nodetypes="ccccccc"
     inkscape:connector-curvature="0"
     d="M 2.341661,3.9591127 1.4390065,4.860254 1.0979184,4.5200739 0.8769769,4.7408015 1.4390067,5.3013038 2.5626064,4.1798396 Z"
     id="path938"
     style="color:#000000;font-style:normal;font-variant:normal;font-weight:normal;font-stretch:normal;font-size:medium;line-height:normal;font-family:sans-serif;font-variant-ligatures:normal;font-variant-position:normal;font-variant-caps:normal;font-variant-numeric:normal;font-variant-alternates:normal;font-feature-settings:normal;text-indent:0;text-align:start;text-decoration:none;text-decoration-line:none;text-decoration-style:solid;text-decoration-color:#000000;letter-spacing:normal;word-spacing:normal;text-transform:none;writing-mode:lr-tb;direction:ltr;text-orientation:mixed;dominant-baseline:auto;baseline-shift:baseline;text-anchor:start;white-space:normal;shape-padding:0;clip-rule:nonzero;display:inline;overflow:visible;visibility:visible;opacity:1;isolation:auto;mix-blend-mode:normal;color-interpolation:sRGB;color-interpolation-filters:linearRGB;solid-color:#000000;solid-opacity:1;vector-effect:none;fill:#ffffff;fill-opacity:1;fill-rule:nonzero;stroke:none;stroke-width:0.39687505;stroke-linecap:butt;stroke-linejoin:miter;stroke-miterlimit:4;stroke-dasharray:none;stroke-dashoffset:0;stroke-opacity:1;marker:none;color-rendering:auto;image-rendering:auto;shape-rendering:auto;text-rendering:auto;enable-background:accumulate" />
  <path
     sodipodi:nodetypes="ccc"
     inkscape:connector-curvature="0"
     id="path926"
     d="M 4.6302083,5.2916667 3.96875,3.96875 h 1.3229167"
     style="fill:#7c436f;fill-opacity:1;stroke:none;stroke-width:0.26458335px;stroke-linecap:butt;stroke-linejoin:miter;stroke-opacity:1" />
</svg>

<svg xmlns="http://www.w3.org/2000/svg" height="24" viewBox="0 0 6.35 6.35" width="24"><linearGradient id="a"><stop offset="0" stop-color="#fff"/><stop offset=".125" stop-color="#fff" stop-opacity=".099"/><stop offset="1" stop-color="#fff" stop-opacity="0"/><stop offset="1" stop-color="#fff" stop-opacity=".551"/></linearGradient><rect y=".529" x="3.44" height="2.381" width="2.381" ry=".265" opacity=".6"/><path fill="#fff" d="M3.704.794h1.852v1.852H3.704z"/><rect ry=".265" width="2.381" height="2.381" x="3.44" y="3.44" opacity=".6"/><path fill="#fff" d="M3.704 3.704h1.852v1.852H3.704z"/><path d="M4.63 1.058l.662 1.323H3.969" fill="#7c436f"/><circle cx="1.72" cy="1.72" fill="#7c436f" r="1.191"/><path style="line-height:normal;font-variant-ligatures:normal;font-variant-position:normal;font-variant-caps:normal;font-variant-numeric:normal;font-variant-alternates:normal;font-feature-settings:normal;text-indent:0;text-align:start;text-decoration-line:none;text-decoration-style:solid;text-decoration-color:#000;text-transform:none;text-orientation:mixed;white-space:normal;shape-padding:0;isolation:auto;mix-blend-mode:normal;solid-color:#000;solid-opacity:1;marker:none" d="M2.342 1.049l-.903.9-.341-.34-.221.221.562.56 1.124-1.12z" color="#000" font-weight="400" font-family="sans-serif" overflow="visible" fill="#fff"/><rect y="3.44" x=".529" height="2.381" width="2.381" ry=".265" fill="#7c436f"/><path d="M2.342 3.96l-.903.9-.341-.34-.221.22.562.561L2.563 4.18z" style="line-height:normal;font-variant-ligatures:normal;font-variant-position:normal;font-variant-caps:normal;font-variant-numeric:normal;font-variant-alternates:normal;font-feature-settings:normal;text-indent:0;text-align:start;text-decoration-line:none;text-decoration-style:solid;text-decoration-color:#000;text-transform:none;text-orientation:mixed;white-space:normal;shape-padding:0;isolation:auto;mix-blend-mode:normal;solid-color:#000;solid-opacity:1;marker:none" color="#000" font-weight="400" font-family="sans-serif" overflow="visible" fill="#fff"/><path d="M4.63 5.292L3.97 3.969h1.323" fill="#7c436f"/></svg>
